X: 21563
T: The Rising Breeze
Q: "Plaintive"
%R: air
B: James Oswald "The Caledonian Pocket Companion" v.2 p.156 #3
Z: 2018 John Chambers <jc:trillian.mit.edu>
M: C
L: 1/8
K: Gm
"_Slow"|:\
G3g (f<d)d2 | g2B>c {c}d4 |\
b3a g(f/d/) (c/B/c/d/) | (BG)(d^F)  G4 ::\
d3d (dc)c2 | a3c (cB)B2 | (AG)(ed)
(cB)(AG) |\
^F>G (TG3/^F//G//) (G2A)z |\
B3=B Tc>(Bc2) | (db)(ag) (Tg^f/g/) f2 |\
(g3a/b/) d(c/B/) (A/G/^F/G/) | (ec)(d^F) G4 :|


